packages/ffe-icons/icons/open/300/md/mosque.svg

<svg xmlns="http://www.w3.org/2000/svg" height="24" viewBox="0 -960 960 960" width="24"><path d="M50-189.999V-616.77q-18-9.846-29-25.953T10-680q0-20.307 19.77-48.499Q49.539-756.691 80-785.768q30.461 29.077 50.23 57.269 19.769 28.192 19.769 48.499 0 21.17-11 37.277t-29 25.953v186.771h100.002V-520q0-24.231 15.807-44.346 15.808-20.115 43.116-24.423h13.847q-16.001-18.153-24.385-40.269-8.385-22.116-8.385-46.962 0-37.396 17.851-69.183 17.852-31.787 47.918-52.355l130.385-87.846q15.054-10.538 33.872-10.538 18.819 0 33.818 10.538l130.385 87.846q30.066 20.568 47.918 52.355 17.851 31.787 17.851 69.183 0 24.846-8.385 46.962-8.384 22.116-24.385 40.269h13.847q27.308 4.308 43.116 24.423 15.807 20.115 15.807 44.346v90.001h100.002V-616.77q-18-9.846-29-25.953t-11-37.277q0-20.307 19.769-48.499 19.769-28.192 50.23-57.269 30.461 29.077 50.23 57.269 19.769 28.192 19.769 48.499 0 21.17-11 37.277t-29 25.953v426.771q0 24.538-17.73 42.268t-42.268 17.73H566.154q-15.365 0-25.759-10.394t-10.394-25.759V-280q0-20.846-14.577-35.424-14.578-14.577-35.424-14.577t-35.424 14.577Q429.999-300.846 429.999-280v113.846q0 15.365-10.394 25.759t-25.759 10.394H109.999q-24.538 0-42.268-17.73t-17.73-42.268Zm346-400h168q35.846 0 60.924-25.077 25.077-25.078 25.077-60.865 0-22.367-10.154-41.367-10.154-19-28.462-31.154L480-835.924l-131.385 87.462q-18.308 12.154-28.462 31.154t-10.154 41.367q0 35.787 25.077 60.865 25.078 25.077 60.924 25.077Zm-286.001 400h260.002V-280q0-45.833 32.07-77.916t77.884-32.083q45.814 0 77.929 32.083T589.999-280v90.001h260.002v-180.002H749.999q-24.538 0-42.268-17.73t-17.73-42.268V-520q0-4.231-2.885-7.116T680-530.001H280q-4.231 0-7.116 2.885T269.999-520v90.001q0 24.538-17.73 42.268t-42.268 17.73H109.999v180.002ZM480-530.001Zm0-59.998Zm0 1.23Z"/></svg>

<svg xmlns="http://www.w3.org/2000/svg" height="24" viewBox="0 -960 960 960" width="24"><path d="M50-190v-426.77q-18-9.85-29-25.95Q10-658.83 10-680q0-20.31 19.77-48.5T80-785.77q30.46 29.08 50.23 57.27Q150-700.31 150-680q0 21.17-11 37.28-11 16.1-29 25.95V-430h100v-90q0-24.23 15.81-44.35 15.81-20.11 43.11-24.42h13.85q-16-18.15-24.38-40.27Q250-651.15 250-676q0-37.4 17.85-69.18 17.85-31.79 47.92-52.36l130.38-87.84q15.06-10.54 33.88-10.54t33.82 10.54l130.38 87.84q30.07 20.57 47.92 52.36Q710-713.4 710-676q0 24.85-8.39 46.96-8.38 22.12-24.38 40.27h13.85q27.3 4.31 43.11 24.42Q750-544.23 750-520v90h100v-186.77q-18-9.85-29-25.95-11-16.11-11-37.28 0-20.31 19.77-48.5T880-785.77q30.46 29.08 50.23 57.27Q950-700.31 950-680q0 21.17-11 37.28-11 16.1-29 25.95V-190q0 24.54-17.73 42.27Q874.54-130 850-130H566.15q-15.36 0-25.76-10.39Q530-150.79 530-166.15V-280q0-20.85-14.58-35.42Q500.85-330 480-330t-35.42 14.58Q430-300.85 430-280v113.85q0 15.36-10.39 25.76Q409.21-130 393.85-130H110q-24.54 0-42.27-17.73Q50-165.46 50-190Zm346-400h168q35.85 0 60.92-25.08Q650-640.15 650-675.94q0-22.37-10.15-41.37-10.16-19-28.46-31.15L480-835.92l-131.39 87.46q-18.3 12.15-28.46 31.15-10.15 19-10.15 41.37 0 35.79 25.08 60.86Q360.15-590 396-590ZM110-190h260v-90q0-45.83 32.07-77.92Q434.14-390 479.95-390q45.82 0 77.93 32.08Q590-325.83 590-280v90h260v-180H750q-24.54 0-42.27-17.73Q690-405.46 690-430v-90q0-4.23-2.88-7.12Q684.23-530 680-530H280q-4.23 0-7.12 2.88Q270-524.23 270-520v90q0 24.54-17.73 42.27Q234.54-370 210-370H110v180Zm370-340Zm0-60Zm0 1.23Z"/></svg>
